packages/core/src/browser/icons/replace-all-inverse.svg

<svg enable-background="new 0 0 16 16" height="16" viewBox="0 0 16 16" width="16" xmlns="http://www.w3.org/2000/svg"><path d="m11 15v-6h-10v6zm-9-1v-2h1v-1h-1v-1h3v4zm8-3h-2v2h2v1h-3v-4h3zm-7 2v-1h1v1zm10-6v6h-1v-5h-7v-1zm0-5v-1h-1v5h3v-4zm1 3h-1v-2h1zm-3-3v4h-3v-2h1v1h1v-1h-1v-1h-1v-1z" fill="#c5c5c5"/><path d="m1.979 3.5.021 2.5-1-1v1.5l1.5 1.5 1.5-1.5v-1.5l-1 1-.021-2.5c0-.275.225-.5.5-.5h3.521v-1h-3.521c-.828 0-1.5.673-1.5 1.5z" fill="#75beff"/></svg>

<!--Copyright (c) Microsoft Corporation. All rights reserved.-->
<!--Copyright (C) 2018 TypeFox and others.-->
<!--Licensed under the MIT License. See License.txt in the project root for license information.-->
<svg xmlns="http://www.w3.org/2000/svg" xmlns:xlink="http://www.w3.org/1999/xlink" width="16px" height="16px" x="0px" y="0px" enable-background="new 0 0 16 16" version="1.1" viewBox="0 0 16 16" xml:space="preserve">
    <g id="icon_x5F_bg">
        <path fill="#C5C5C5" d="M11,15V9H1v6H11z M2,14v-2h1v-1H2v-1h3v4H2z M10,11H8v2h2v1H7v-4h3V11z M3,13v-1h1v1H3z M13,7v6h-1V8H5V7
		H13z M13,2V1h-1v5h3V2H13z M14,5h-1V3h1V5z M11,2v4H8V4h1v1h1V4H9V3H8V2H11z"/>
    </g>
    <g id="color_x5F_action">
        <path fill="#75BEFF" d="M1.979,3.5L2,6L1,5v1.5L2.5,8L4,6.5V5L3,6L2.979,3.5c0-0.275,0.225-0.5,0.5-0.5H7V2H3.479
		C2.651,2,1.979,2.673,1.979,3.5z"/>
    </g>
</svg>
